static/assets/images/icons/omniscia.svg

<svg width="257" height="256" viewBox="0 0 257 256" fill="none" xmlns="http://www.w3.org/2000/svg">
<path d="M157.772 229.753C187.831 208.016 210.451 177.546 222.549 142.497C223.768 138.966 224.297 136.772 222.549 135.437C220.97 134.231 184.027 124.734 161.927 118.62C158.759 137.142 166.239 156.137 156.143 174.635C146.978 191.427 117.907 204.168 111.418 207.163C120.82 216.131 130.938 224.444 140.498 230.712C144.63 233.464 146.565 234.9 148.511 234.914C150.633 234.929 152.766 233.254 157.772 229.753Z" fill="black"/>
<path d="M122.791 109.685C120.883 110.639 119.865 111.334 120.825 129.553C121.382 137.378 121.862 145.209 122.264 153.045C122.51 158.695 122.63 161.45 121.526 163.568C120.476 165.582 118.318 167.02 114.107 169.825L113.092 170.468C94.9292 181.975 93.9709 182.582 93.4741 184.207C92.9682 185.862 93.4741 188.043 95.3934 190.44C99.5431 195.2 104.087 200.01 108.85 204.68C108.85 204.68 143.588 189.551 153.128 171.298C162.668 153.045 154.75 135.914 158.28 117.604C137.647 112.33 124.699 108.731 122.791 109.685Z" fill="black"/>
<path d="M126.13 21.0817C126.13 21.0817 119.738 21.3669 118.425 22.6401C117.113 23.9132 116.506 25.0372 116.986 40.3789C117.663 53.8011 118.382 69.4313 118.984 82.857C119.097 86.2908 119.164 88.3693 120.136 89.8583C121.626 92.1418 125.242 93.0389 134.402 95.3119C152.819 100.181 174.862 106.061 193.233 111.1C203.115 113.751 207.538 114.937 209.926 113.249C211.861 111.881 213.912 100.787 213.912 100.787C215.34 92.1708 216.259 83.486 216.667 74.7775C205.98 67.052 172.113 69.6272 151.888 63.4277C131.663 57.2283 126.13 21.0817 126.13 21.0817Z" fill="black"/>
<path d="M216.312 48.0498C215.832 37.0229 215.352 36.5435 207.675 33.6669C186.652 25.4477 157.795 20.6122 129.809 21.0002C130.813 26.8953 136.442 54.5234 154.486 60.0542C173.931 66.0147 204.968 63.662 216.83 70.3376C217.029 62.9107 216.857 55.4721 216.312 48.0498Z" fill="black"/>
<path d="M106.43 145.374C105.449 127.324 104.65 109.264 104.03 91.1983L102.111 49.0086C101.631 44.2143 98.7523 42.2966 93.4741 43.2555C80.8857 45.5853 68.5405 49.027 56.5826 53.5345C61.9583 54.8605 85.9579 61.6781 89.2586 78.397C92.9792 97.243 82.1989 118.932 81.1495 138.865C80.1835 157.215 85.0414 168.188 85.8194 169.816C90.1281 167.086 96.4604 163.096 96.4604 163.096C96.4604 163.096 104.665 157.946 106.055 154.995C106.859 153.29 106.605 149.025 106.43 145.374Z" fill="black"/>
<path d="M51.9083 55.3588C51.9083 55.3588 35.3949 61.9979 34.4484 65.1453C33.0246 69.8802 32.6931 87.9353 34.4545 98.8692C37.8133 123.799 48.3697 153.045 61.3252 175.098C63.7244 178.934 65.3599 180.264 67.8403 180.359C70.3207 180.454 71.072 179.738 81.9594 172.281C81.9594 172.281 75.9492 160.425 76.9986 140.492C78.048 120.558 88.8282 98.8692 85.1076 80.0232C81.387 61.1772 51.9083 55.3588 51.9083 55.3588Z" fill="black"/>
</svg>

<svg xmlns="http://www.w3.org/2000/svg" viewBox="0 0 257 256"><path d="M157.772 229.753a180.27 180.27 0 0 0 64.777-87.256c1.219-3.531 1.748-5.725 0-7.06-1.579-1.206-38.522-10.703-60.622-16.817-3.168 18.522 4.312 37.517-5.784 56.015-9.165 16.792-38.236 29.533-44.725 32.528 9.402 8.968 19.52 17.281 29.08 23.549 4.132 2.752 6.067 4.188 8.013 4.202 2.122.015 4.255-1.66 9.261-5.161"/><path d="M122.791 109.685c-1.908.954-2.926 1.649-1.966 19.868q.836 11.738 1.439 23.492c.246 5.65.366 8.405-.738 10.523-1.05 2.014-3.208 3.452-7.419 6.257l-1.015.643c-18.163 11.507-19.121 12.114-19.618 13.739-.506 1.655 0 3.836 1.92 6.233a252 252 0 0 0 13.456 14.24s34.738-15.129 44.278-33.382 1.622-35.384 5.152-53.694c-20.633-5.274-33.581-8.873-35.489-7.919m3.339-88.603s-6.392.285-7.705 1.558-1.919 2.397-1.439 17.739c.677 13.422 1.396 29.052 1.998 42.478.113 3.434.18 5.512 1.152 7.001 1.49 2.284 5.106 3.18 14.266 5.454 18.417 4.869 40.46 10.749 58.831 15.788 9.882 2.651 14.305 3.837 16.693 2.149 1.935-1.368 3.986-12.462 3.986-12.462a223 223 0 0 0 2.755-26.01c-10.687-7.725-44.554-5.15-64.779-11.35S126.13 21.083 126.13 21.083"/><path d="M216.312 48.05c-.48-11.027-.96-11.506-8.637-14.383-21.023-8.22-49.88-13.055-77.866-12.667 1.004 5.895 6.633 33.523 24.677 39.054 19.445 5.96 50.482 3.608 62.344 10.284.199-7.427.027-14.866-.518-22.288M106.43 145.374q-1.47-27.076-2.4-54.176l-1.919-42.19q-.72-7.19-8.637-5.753a216 216 0 0 0-36.891 10.28c5.375 1.326 29.375 8.143 32.676 24.862 3.72 18.846-7.06 40.535-8.11 60.468-.966 18.35 3.892 29.323 4.67 30.951 4.31-2.73 10.641-6.72 10.641-6.72s8.205-5.15 9.595-8.101c.804-1.705.55-5.97.375-9.621"/><path d="M51.908 55.359s-16.513 6.639-17.46 9.786c-1.423 4.735-1.755 22.79.007 33.724 3.358 24.93 13.915 54.176 26.87 76.229 2.4 3.836 4.035 5.166 6.515 5.261s3.232-.621 14.12-8.078c0 0-6.01-11.856-4.961-31.789 1.049-19.934 11.83-41.623 8.109-60.469s-33.2-24.664-33.2-24.664"/></svg>
